src/images/circuits/japanese.svg

<svg width="40" height="22" viewBox="0 0 40 22" fill="none" xmlns="http://www.w3.org/2000/svg">
<path d="M16.2342 20.841C19.3234 20.841 20.1247 19.0219 20.1621 17.7796C20.1708 17.4885 20.3654 17.2173 20.6535 17.1741V17.1741C20.9331 17.1322 21.1289 16.8761 21.1019 16.5946C21.0135 15.6753 20.899 14.0569 20.899 12.1776C20.899 9.30693 21.4629 9.51198 25.8202 6.38498C30.1775 3.25797 36.4828 1.05369 37.6106 1.00242C38.7384 0.951161 39.0459 1.7201 38.9947 2.64282C38.9434 3.56554 38.277 4.94963 36.4828 4.53953C34.6886 4.12943 32.7407 3.46302 30.3313 4.53953C27.922 5.61604 27.5632 7.00013 27.1531 8.23043C26.743 9.46072 28.5884 12.3827 28.0245 12.4852C27.6297 12.557 26.918 11.4296 26.4945 10.6431C26.387 10.4433 26.2207 10.2803 26.0148 10.1851L21.6834 8.18292C21.2329 7.97468 20.6979 8.12832 20.4265 8.54384L19.4851 9.98537C19.3401 10.2074 19.2904 10.4772 19.3378 10.7382C19.6126 12.2494 19.894 14.915 19.2586 16.0736C18.3872 17.6627 16.5417 18.3804 15.9266 18.3804C15.3114 18.3804 14.2862 15.7147 13.2097 15.7147C12.1332 15.7147 11.313 16.8425 10.4928 17.3551C9.67258 17.8678 8.44228 16.8938 7.4683 16.8425C6.49431 16.7912 6.69936 17.3551 5.93043 17.8165C5.31528 18.1856 4.13624 17.9703 3.62362 17.8165C2.88886 17.6627 1.34758 17.5602 1.06051 18.3804C0.70167 19.4056 2.03449 20.841 2.54712 20.841C3.05974 20.841 11.7743 20.841 16.2342 20.841Z" stroke="#FF0000"/>
</svg>

<svg width="40" height="22" fill="none" xmlns="http://www.w3.org/2000/svg"><path d="M16.234 20.841c3.09 0 3.89-1.82 3.928-3.061.009-.292.203-.563.492-.606a.533.533 0 0 0 .448-.58 47.972 47.972 0 0 1-.203-4.416c0-2.871.564-2.666 4.921-5.793 4.357-3.127 10.663-5.331 11.79-5.383 1.128-.05 1.436.718 1.385 1.64-.052.924-.718 2.308-2.512 1.898-1.794-.41-3.742-1.077-6.152 0-2.409 1.076-2.768 2.46-3.178 3.69-.41 1.23 1.435 4.153.872 4.255-.395.072-1.107-1.055-1.53-1.842a1.048 1.048 0 0 0-.48-.458l-4.332-2.002a1 1 0 0 0-1.256.36l-.942 1.442a1.036 1.036 0 0 0-.147.753c.275 1.511.556 4.177-.08 5.336-.87 1.589-2.716 2.306-3.331 2.306-.616 0-1.64-2.665-2.717-2.665-1.077 0-1.897 1.128-2.717 1.64-.82.513-2.05-.461-3.025-.512-.974-.052-.769.512-1.538.974-.615.369-1.794.153-2.306 0-.735-.154-2.276-.257-2.563.563-.36 1.026.973 2.461 1.486 2.461h13.687Z" stroke="red"/></svg>
